cssgg/ratio.svg

<svg
  width="24"
  height="24"
  viewBox="0 0 24 24"
  fill="none"
  xmlns="http://www.w3.org/2000/svg"
>
  <path d="M4 6V12H6V8L10 8V6H4Z" fill="currentColor" />
  <path d="M20 18H14V16H18V12H20V18Z" fill="currentColor" />
  <path
    fill-rule="evenodd"
    clip-rule="evenodd"
    d="M4 2C1.79086 2 0 3.79086 0 6V18C0 20.2091 1.79086 22 4 22H20C22.2091 22 24 20.2091 24 18V6C24 3.79086 22.2091 2 20 2H4ZM20 4H4C2.89543 4 2 4.89543 2 6V18C2 19.1046 2.89543 20 4 20H20C21.1046 20 22 19.1046 22 18V6C22 4.89543 21.1046 4 20 4Z"
    fill="currentColor"
  />
</svg>

<svg viewBox="0 0 24 24" xmlns="http://www.w3.org/2000/svg"><g><path d="M4 6v6h2V8h4V6H4Z"/><path d="M20 18h-6v-2h4v-4h2v6Z"/><path fill-rule="evenodd" d="M4 2C1.79 2 0 3.79 0 6v12c0 2.2 1.79 4 4 4h16c2.2 0 4-1.8 4-4V6c0-2.21-1.8-4-4-4H4Zm16 2H4c-1.11 0-2 .89-2 2v12c0 1.1.89 2 2 2h16c1.1 0 2-.9 2-2V6c0-1.11-.9-2-2-2Z"/></g></svg>
